austria/municipalities/41423.svg

<?xml version="1.0" encoding="UTF-8"?>
<!DOCTYPE svg PUBLIC "-//W3C//DTD SVG 1.1//EN" "http://www.w3.org/Graphics/SVG/1.1/DTD/svg11.dtd">
<svg xmlns="http://www.w3.org/2000/svg" version="1.1" width="166px" height="207px" style="shape-rendering:geometricPrecision; text-rendering:geometricPrecision; image-rendering:optimizeQuality; fill-rule:evenodd; clip-rule:evenodd" xmlns:xlink="http://www.w3.org/1999/xlink">
<g><path style="opacity:1" fill="#000000" d="M -0.5,-0.5 C 54.8333,-0.5 110.167,-0.5 165.5,-0.5C 165.5,44.5 165.5,89.5 165.5,134.5C 161.239,157.511 149.906,176.344 131.5,191C 120.516,198.576 108.516,203.743 95.5,206.5C 86.8333,206.5 78.1667,206.5 69.5,206.5C 30.0336,197.035 6.70027,172.368 -0.5,132.5C -0.5,88.1667 -0.5,43.8333 -0.5,-0.5 Z"/></g>
<g><path style="opacity:1" fill="#fefffe" d="M 3.5,3.5 C 10.1998,3.16998 16.8665,3.50331 23.5,4.5C 67.7357,54.6461 111.736,104.979 155.5,155.5C 151.396,164.441 145.896,172.441 139,179.5C 94.4014,127.896 49.4014,76.5624 4,25.5C 3.50034,18.1742 3.33368,10.8409 3.5,3.5 Z"/></g>
<g><path style="opacity:1" fill="#003266" d="M 26.5,3.5 C 71.5,3.5 116.5,3.5 161.5,3.5C 161.667,48.1679 161.5,92.8346 161,137.5C 159.963,142.649 158.463,147.649 156.5,152.5C 112.405,103.411 69.0716,53.7445 26.5,3.5 Z"/></g>
<g><path style="opacity:1" fill="#000000" d="M 108.5,61.5 C 108.704,64.5176 109.037,67.5176 109.5,70.5C 99.7542,69.3532 96.2542,64.0199 99,54.5C 101.077,50.0369 104.577,47.3702 109.5,46.5C 114.499,47.4415 118.999,49.4415 123,52.5C 123.499,48.5138 123.666,44.5138 123.5,40.5C 120.753,40.1866 118.086,40.52 115.5,41.5C 114.564,42.9744 113.23,43.9744 111.5,44.5C 102.195,40.4112 102.195,36.4112 111.5,32.5C 115.364,34.0257 119.364,34.6923 123.5,34.5C 123.785,32.712 123.452,31.0453 122.5,29.5C 117.318,33.8602 113.318,32.8602 110.5,26.5C 113.267,20.1414 117.267,19.1414 122.5,23.5C 122.833,23.1667 123.167,22.8333 123.5,22.5C 119.735,18.5239 120.069,14.6905 124.5,11C 129.233,10.7206 131.899,13.054 132.5,18C 132.031,19.8869 131.031,21.3869 129.5,22.5C 130,22.8333 130.5,23.1667 131,23.5C 134.965,19.4744 138.632,19.8078 142,24.5C 143.315,28.1408 142.149,30.4741 138.5,31.5C 136.926,32.6309 135.259,32.7975 133.5,32C 132.692,30.2942 131.359,29.4609 129.5,29.5C 129.5,31.1667 129.5,32.8333 129.5,34.5C 133.908,34.884 138.075,34.2174 142,32.5C 151.993,36.4781 151.993,40.4781 142,44.5C 140.378,44.0459 139.212,43.0459 138.5,41.5C 135.572,40.5159 132.572,40.1826 129.5,40.5C 129.334,44.8461 129.501,49.1794 130,53.5C 135.36,47.9386 141.86,46.1052 149.5,48C 157.213,55.1282 157.379,62.2949 150,69.5C 147.901,70.2865 145.734,70.6199 143.5,70.5C 144.509,67.4726 144.509,64.4726 143.5,61.5C 138.831,58.6624 135.831,59.9957 134.5,65.5C 135.35,69.1325 135.35,72.7991 134.5,76.5C 138.631,75.7887 142.631,74.9554 146.5,74C 152.833,78.8768 153,83.7101 147,88.5C 144.966,87.0558 144.132,85.0558 144.5,82.5C 143.5,82.5 142.5,82.5 141.5,82.5C 141.703,84.3904 141.037,85.8904 139.5,87C 137.19,87.4966 134.857,87.6633 132.5,87.5C 132.421,88.9305 132.754,90.2638 133.5,91.5C 131.136,94.6985 128.97,98.0319 127,101.5C 122.427,97.3778 120.427,92.3778 121,86.5C 116.223,88.5628 112.723,87.2295 110.5,82.5C 108.914,84.1727 108.247,86.1727 108.5,88.5C 106.097,88.607 104.264,87.607 103,85.5C 101.598,79.6676 103.598,75.6676 109,73.5C 111.361,74.5512 113.694,75.5512 116,76.5C 119.926,75.1442 120.426,72.9776 117.5,70C 119.542,61.1986 116.542,58.3653 108.5,61.5 Z"/></g>
<g><path style="opacity:1" fill="#fe9900" d="M 125.5,12.5 C 126.5,12.5 127.5,12.5 128.5,12.5C 129.167,14.8333 129.833,17.1667 130.5,19.5C 129.5,19.5 128.5,19.5 127.5,19.5C 127.5,21.5 127.5,23.5 127.5,25.5C 129.604,25.7989 131.604,25.4656 133.5,24.5C 133.887,23.2801 134.72,22.6135 136,22.5C 137.3,23.7073 138.8,24.3739 140.5,24.5C 140.5,25.8333 140.5,27.1667 140.5,28.5C 138.8,28.6261 137.3,29.2927 136,30.5C 134.72,30.3865 133.887,29.7199 133.5,28.5C 131.604,27.5344 129.604,27.2011 127.5,27.5C 127.5,30.5 127.5,33.5 127.5,36.5C 132.585,37.0115 137.419,36.3449 142,34.5C 143.567,35.8561 145.4,36.5228 147.5,36.5C 147.67,37.8221 147.337,38.9887 146.5,40C 144.58,41.1223 142.58,41.9556 140.5,42.5C 140.67,41.1779 140.337,40.0113 139.5,39C 135.514,38.5012 131.514,38.3345 127.5,38.5C 127.666,44.5092 127.499,50.5092 127,56.5C 125.547,50.6828 125.047,44.6828 125.5,38.5C 121.5,38.5 117.5,38.5 113.5,38.5C 113.778,40.3464 113.111,41.6798 111.5,42.5C 110.15,41.0499 108.484,40.3832 106.5,40.5C 106.5,39.1667 106.5,37.8333 106.5,36.5C 108.277,36.2137 109.944,35.5471 111.5,34.5C 115.993,36.2484 120.66,36.9151 125.5,36.5C 125.5,33.5 125.5,30.5 125.5,27.5C 123.5,27.5 121.5,27.5 119.5,27.5C 119.5,28.5 119.5,29.5 119.5,30.5C 117.167,29.8333 114.833,29.1667 112.5,28.5C 112.5,27.1667 112.5,25.8333 112.5,24.5C 114.484,24.6168 116.15,23.9501 117.5,22.5C 119.588,24.8649 122.254,25.8649 125.5,25.5C 125.5,23.5 125.5,21.5 125.5,19.5C 124.5,19.5 123.5,19.5 122.5,19.5C 123.011,16.9785 124.011,14.6451 125.5,12.5 Z"/></g>
<g><path style="opacity:1" fill="#000000" d="M 19.5,16.5 C 23.9093,15.6185 27.4093,16.9518 30,20.5C 30.6514,22.235 30.4847,23.9017 29.5,25.5C 66.9483,68.5123 105.115,111.846 144,155.5C 147.106,161.218 145.606,163.718 139.5,163C 109.066,128.359 79.0662,94.359 49.5,61C 41.6667,51.8333 33.8333,42.6667 26,33.5C 22.5415,32.12 19.0415,30.7867 15.5,29.5C 13.6965,24.1274 15.0298,19.7941 19.5,16.5 Z"/></g>
<g><path style="opacity:1" fill="#fe9900" d="M 19.5,18.5 C 21.8568,18.3367 24.1902,18.5034 26.5,19C 29.4156,24.8223 27.5822,28.6556 21,30.5C 18.0535,30.0533 16.2201,28.3866 15.5,25.5C 16.5923,22.9763 17.9257,20.643 19.5,18.5 Z"/></g>
<g><path style="opacity:1" fill="#cb0000" d="M 3.5,27.5 C 48.5071,77.6768 93.0071,128.343 137,179.5C 137.667,180.167 137.667,180.833 137,181.5C 133.333,184.5 129.667,187.5 126,190.5C 123.81,177.806 116.31,171.473 103.5,171.5C 102.655,153.492 93.3216,145.992 75.5,149C 65.9478,152.923 60.9478,160.089 60.5,170.5C 48.6783,171.731 41.345,178.064 38.5,189.5C 19.4892,176.833 7.98925,159.167 4,136.5C 3.50001,100.168 3.33335,63.8349 3.5,27.5 Z"/></g>
<g><path style="opacity:1" fill="#fe9900" d="M 108.5,61.5 C 106.313,63.2818 105.98,65.4485 107.5,68C 104.443,68.5539 102.276,67.3873 101,64.5C 99.0034,58.9671 100.17,54.1338 104.5,50C 110.715,48.1342 116.382,49.3009 121.5,53.5C 123.149,55.6499 124.982,57.6499 127,59.5C 131.224,52.4373 137.391,48.9373 145.5,49C 153.314,52.143 155.481,57.643 152,65.5C 147.492,69.6286 145.492,68.2952 146,61.5C 140.09,55.5185 135.59,56.5185 132.5,64.5C 131.5,65.8333 130.5,65.8333 129.5,64.5C 132.462,57.01 137.796,54.1766 145.5,56C 147.422,57.4196 148.755,59.2529 149.5,61.5C 150.38,58.0476 149.047,55.5476 145.5,54C 141.218,53.0349 137.218,53.7016 133.5,56C 130.533,58.7952 128.2,61.9618 126.5,65.5C 123.03,55.6358 116.363,52.1358 106.5,55C 103.726,56.6052 103.06,58.7719 104.5,61.5C 105.406,59.6136 106.406,57.7803 107.5,56C 115.815,54.3191 121.149,57.4858 123.5,65.5C 122.5,65.5 121.5,65.5 120.5,65.5C 119.855,60.6836 117.188,58.1836 112.5,58C 110.456,58.4983 109.122,59.665 108.5,61.5 Z"/></g>
<g><path style="opacity:1" fill="#fe9900" d="M 56.5,57.5 C 59.4734,57.9651 60.6401,59.6318 60,62.5C 56.943,66.9509 53.7763,67.2842 50.5,63.5C 51.6651,62.4164 52.9984,61.5831 54.5,61C 55.8228,60.1841 56.4894,59.0174 56.5,57.5 Z"/></g>
<g><path style="opacity:1" fill="#fe9900" d="M 120.5,67.5 C 124.514,67.3345 128.514,67.5012 132.5,68C 133.337,69.0113 133.67,70.1779 133.5,71.5C 128.833,71.5 124.167,71.5 119.5,71.5C 119.433,70.0413 119.766,68.7079 120.5,67.5 Z"/></g>
<g><path style="opacity:1" fill="#fe9900" d="M 121.5,73.5 C 122.5,73.5 123.5,73.5 124.5,73.5C 124.348,77.7928 123.014,81.6262 120.5,85C 118.5,85.6667 116.5,85.6667 114.5,85C 110.918,79.0036 108.085,79.5036 106,86.5C 102.767,81.6888 103.933,78.0221 109.5,75.5C 114.494,80.0014 118.494,79.3347 121.5,73.5 Z"/></g>
<g><path style="opacity:1" fill="#fe9900" d="M 125.5,73.5 C 126.497,73.4701 127.164,73.9701 127.5,75C 128.143,80.6683 129.476,86.1683 131.5,91.5C 130.826,93.5165 129.659,95.1832 128,96.5C 127.465,82.0307 126.465,82.0307 125,96.5C 124.215,94.714 123.049,93.214 121.5,92C 124.169,86.1556 125.503,79.9889 125.5,73.5 Z"/></g>
<g><path style="opacity:1" fill="#fe9900" d="M 129.5,73.5 C 130.5,73.5 131.5,73.5 132.5,73.5C 133.174,78.1514 135.841,79.6514 140.5,78C 142.546,74.9952 144.879,74.8285 147.5,77.5C 150.295,80.682 150.129,83.682 147,86.5C 145.269,79.2526 142.435,78.7526 138.5,85C 135.364,86.0405 132.864,85.2072 131,82.5C 130.498,79.4869 129.998,76.4869 129.5,73.5 Z"/></g>
<g><path style="opacity:1" fill="#000000" d="M 38.5,95.5 C 43.2029,95.1201 47.5363,96.1201 51.5,98.5C 53.5646,104.031 55.0646,109.698 56,115.5C 56.5,116 57,116.5 57.5,117C 60.4816,117.498 63.4816,117.665 66.5,117.5C 64.8357,131.161 59.1691,142.827 49.5,152.5C 47.045,153.929 44.545,155.262 42,156.5C 30.1233,149.94 22.79,139.94 20,126.5C 19.304,123.522 18.804,120.522 18.5,117.5C 22.6034,118.231 26.1034,117.231 29,114.5C 29.9081,109.807 30.9081,105.14 32,100.5C 33.2716,97.5081 35.4382,95.8414 38.5,95.5 Z"/></g>
<g><path style="opacity:1" fill="#fe9900" d="M 37.5,97.5 C 41.8764,97.114 46.0431,97.7806 50,99.5C 49.2401,101.227 48.0735,102.894 46.5,104.5C 46.7489,109.876 48.4155,114.71 51.5,119C 52.1667,119.667 52.8333,119.667 53.5,119C 48.9615,114.11 48.1282,108.944 51,103.5C 52.0288,107.859 53.1955,112.193 54.5,116.5C 57.2936,118.984 60.6269,120.151 64.5,120C 62.5655,129.135 59.0655,137.635 54,145.5C 50.9578,148.933 47.4578,151.766 43.5,154C 41.212,154.418 39.212,153.751 37.5,152C 27.7724,143.381 22.1057,132.548 20.5,119.5C 24.1916,120.029 27.3583,119.029 30,116.5C 31.5792,112.286 32.7458,107.953 33.5,103.5C 34.9911,104.348 35.6578,105.681 35.5,107.5C 35.2313,111.588 33.898,115.255 31.5,118.5C 31.6667,118.833 31.8333,119.167 32,119.5C 36.0044,116.351 37.8377,112.184 37.5,107C 37.0287,103.854 36.0287,101.021 34.5,98.5C 35.791,98.7373 36.791,98.404 37.5,97.5 Z"/></g>
<g><path style="opacity:1" fill="#000000" d="M 40.5,102.5 C 44.1612,102.35 45.1612,103.85 43.5,107C 39.7071,107.487 38.7071,105.987 40.5,102.5 Z"/></g>
<g><path style="opacity:1" fill="#000000" d="M 47.5,120.5 C 49.9605,129.316 48.2938,137.316 42.5,144.5C 39.4574,141.908 37.6241,138.575 37,134.5C 36.3333,130.167 36.3333,125.833 37,121.5C 37.02,128.607 38.6867,135.273 42,141.5C 43.5862,139.33 44.9196,136.996 46,134.5C 46.2227,129.75 46.7227,125.084 47.5,120.5 Z"/></g>
<g><path style="opacity:1" fill="#fefffe" d="M -0.5,132.5 C 6.70027,172.368 30.0336,197.035 69.5,206.5C 46.1667,206.5 22.8333,206.5 -0.5,206.5C -0.5,181.833 -0.5,157.167 -0.5,132.5 Z"/></g>
<g><path style="opacity:1" fill="#fefffe" d="M 165.5,134.5 C 165.5,158.5 165.5,182.5 165.5,206.5C 142.167,206.5 118.833,206.5 95.5,206.5C 108.516,203.743 120.516,198.576 131.5,191C 149.906,176.344 161.239,157.511 165.5,134.5 Z"/></g>
<g><path style="opacity:1" fill="#fe9900" d="M 80.5,149.5 C 95.5772,150.285 102.911,158.285 102.5,173.5C 109.448,172.063 115.282,174.063 120,179.5C 123.64,183.798 124.14,188.298 121.5,193C 120.5,193.5 119.5,194 118.5,194.5C 117.557,181.351 111.057,177.017 99,181.5C 97.1667,180 95.3333,178.5 93.5,177C 98.1588,165.483 94.4921,158.316 82.5,155.5C 70.4428,158.202 66.7761,165.202 71.5,176.5C 69.8333,178.167 68.1667,179.833 66.5,181.5C 54.3551,176.572 47.6884,180.905 46.5,194.5C 41.5937,192.684 40.2603,189.351 42.5,184.5C 46.3009,175.6 52.9676,171.933 62.5,173.5C 62.0168,160.649 68.0168,152.649 80.5,149.5 Z"/></g>
<g><path style="opacity:1" fill="#006632" d="M 79.5,157.5 C 92.345,158.184 96.345,164.517 91.5,176.5C 93.316,178.817 95.316,180.984 97.5,183C 100.287,182.377 103.12,181.544 106,180.5C 112.575,181.241 115.742,184.907 115.5,191.5C 115.674,193.693 115.007,195.527 113.5,197C 98.9413,202.209 83.9413,203.876 68.5,202C 62.4451,200.759 56.6117,198.926 51,196.5C 47.2068,188.426 49.7068,183.093 58.5,180.5C 61.58,181.477 64.58,182.311 67.5,183C 69.684,180.984 71.684,178.817 73.5,176.5C 69.3554,168.076 71.3554,161.743 79.5,157.5 Z"/></g>
</svg>

<svg xmlns="http://www.w3.org/2000/svg" width="166" height="207" style="shape-rendering:geometricPrecision;text-rendering:geometricPrecision;image-rendering:optimizeQuality;fill-rule:evenodd;clip-rule:evenodd"><path style="opacity:1" d="M-.5-.5h166v135c-4.261 23.011-15.594 41.844-34 56.5-10.984 7.576-22.984 12.743-36 15.5h-26c-39.466-9.465-62.8-34.132-70-74V-.5z"/><path style="opacity:1" fill="#fefffe" d="M3.5 3.5c6.7-.33 13.366.003 20 1a22277.64 22277.64 0 0 1 132 151c-4.104 8.941-9.604 16.941-16.5 24A14552.367 14552.367 0 0 0 4 25.5c-.5-7.326-.666-14.66-.5-22z"/><path style="opacity:1" fill="#003266" d="M26.5 3.5h135a8973.7 8973.7 0 0 1-.5 134 84.237 84.237 0 0 1-4.5 15 6832.972 6832.972 0 0 1-130-149z"/><path style="opacity:1" d="M108.5 61.5c.204 3.018.537 6.018 1 9-9.746-1.147-13.246-6.48-10.5-16 2.077-4.463 5.577-7.13 10.5-8 4.999.941 9.499 2.941 13.5 6 .499-3.986.666-7.986.5-12a16.868 16.868 0 0 0-8 1c-.936 1.474-2.27 2.474-4 3-9.305-4.089-9.305-8.089 0-12a28.69 28.69 0 0 0 12 2c.285-1.788-.048-3.455-1-5-5.182 4.36-9.182 3.36-12-3 2.767-6.359 6.767-7.359 12-3l1-1c-3.765-3.976-3.431-7.81 1-11.5 4.733-.28 7.399 2.054 8 7-.469 1.887-1.469 3.387-3 4.5l1.5 1c3.965-4.026 7.632-3.692 11 1 1.315 3.64.149 5.974-3.5 7-1.574 1.13-3.241 1.297-5 .5-.808-1.706-2.141-2.54-4-2.5v5c4.408.384 8.575-.283 12.5-2 9.993 3.978 9.993 7.978 0 12-1.622-.454-2.788-1.454-3.5-3a21.12 21.12 0 0 0-9-1 84.9 84.9 0 0 0 .5 13c5.36-5.561 11.86-7.395 19.5-5.5 7.713 7.128 7.879 14.295.5 21.5a15.904 15.904 0 0 1-6.5 1c1.009-3.027 1.009-6.027 0-9-4.669-2.838-7.669-1.504-9 4 .85 3.632.85 7.3 0 11a171.308 171.308 0 0 0 12-2.5c6.333 4.877 6.5 9.71.5 14.5-2.034-1.444-2.868-3.444-2.5-6h-3c.203 1.89-.463 3.39-2 4.5-2.31.497-4.643.663-7 .5a6.845 6.845 0 0 0 1 4 99.438 99.438 0 0 0-6.5 10c-4.573-4.122-6.573-9.122-6-15-4.777 2.063-8.277.73-10.5-4-1.586 1.673-2.253 3.673-2 6-2.403.107-4.236-.893-5.5-3-1.402-5.832.598-9.832 6-12a266.825 266.825 0 0 0 7 3c3.926-1.356 4.426-3.522 1.5-6.5 2.042-8.801-.958-11.635-9-8.5z"/><path style="opacity:1" fill="#fe9900" d="M125.5 12.5h3l2 7h-3v6a9.864 9.864 0 0 0 6-1c.387-1.22 1.22-1.887 2.5-2 1.3 1.207 2.8 1.874 4.5 2v4c-1.7.126-3.2.793-4.5 2-1.28-.113-2.113-.78-2.5-2a9.864 9.864 0 0 0-6-1v9c5.085.511 9.919-.155 14.5-2 1.567 1.356 3.4 2.023 5.5 2 .17 1.322-.163 2.489-1 3.5a23.78 23.78 0 0 1-6 2.5c.17-1.322-.163-2.489-1-3.5a72.442 72.442 0 0 0-12-.5c.166 6.01-.001 12.01-.5 18-1.453-5.817-1.953-11.817-1.5-18h-12c.278 1.846-.389 3.18-2 4-1.35-1.45-3.016-2.117-5-2v-4c1.777-.286 3.444-.953 5-2 4.493 1.748 9.16 2.415 14 2v-9h-6v3l-7-2v-4c1.984.117 3.65-.55 5-2 2.088 2.365 4.754 3.365 8 3v-6h-3a18.658 18.658 0 0 1 3-7z"/><path style="opacity:1" d="M19.5 16.5c4.41-.882 7.91.452 10.5 4 .651 1.735.485 3.402-.5 5a15295.161 15295.161 0 0 0 114.5 130c3.106 5.718 1.606 8.218-4.5 7.5a31229.815 31229.815 0 0 0-90-102L26 33.5a360.52 360.52 0 0 0-10.5-4c-1.803-5.373-.47-9.706 4-13z"/><path style="opacity:1" fill="#fe9900" d="M19.5 18.5c2.357-.163 4.69.003 7 .5 2.916 5.822 1.082 9.656-5.5 11.5-2.947-.447-4.78-2.113-5.5-5a35.784 35.784 0 0 1 4-7z"/><path style="opacity:1" fill="#cb0000" d="M3.5 27.5a9683.35 9683.35 0 0 1 133.5 152c.667.667.667 1.333 0 2l-11 9c-2.19-12.694-9.69-19.027-22.5-19-.845-18.008-10.178-25.508-28-22.5-9.552 3.923-14.552 11.089-15 21.5-11.822 1.231-19.155 7.564-22 19-19.01-12.667-30.51-30.333-34.5-53-.5-36.332-.667-72.665-.5-109z"/><path style="opacity:1" fill="#fe9900" d="M108.5 61.5c-2.187 1.782-2.52 3.948-1 6.5-3.057.554-5.224-.613-6.5-3.5-1.997-5.533-.83-10.366 3.5-14.5 6.215-1.866 11.882-.7 17 3.5a46.62 46.62 0 0 0 5.5 6c4.224-7.063 10.391-10.563 18.5-10.5 7.814 3.143 9.981 8.643 6.5 16.5-4.508 4.129-6.508 2.795-6-4-5.91-5.981-10.41-4.981-13.5 3-1 1.333-2 1.333-3 0 2.962-7.49 8.296-10.323 16-8.5 1.922 1.42 3.255 3.253 4 5.5.88-3.452-.453-5.952-4-7.5-4.282-.965-8.282-.298-12 2-2.967 2.795-5.3 5.962-7 9.5-3.47-9.864-10.137-13.364-20-10.5-2.774 1.605-3.44 3.772-2 6.5a60.653 60.653 0 0 1 3-5.5c8.315-1.68 13.649 1.486 16 9.5h-3c-.645-4.816-3.312-7.316-8-7.5-2.044.498-3.378 1.665-4 3.5zM56.5 57.5c2.973.465 4.14 2.132 3.5 5-3.057 4.45-6.224 4.784-9.5 1a12.417 12.417 0 0 1 4-2.5c1.323-.816 1.99-1.983 2-3.5z"/><path style="opacity:1" fill="#fe9900" d="M120.5 67.5a72.442 72.442 0 0 1 12 .5c.837 1.011 1.17 2.178 1 3.5h-14c-.067-1.459.266-2.792 1-4zM121.5 73.5h3c-.152 4.293-1.486 8.126-4 11.5-2 .667-4 .667-6 0-3.582-5.996-6.415-5.496-8.5 1.5-3.233-4.811-2.067-8.478 3.5-11 4.994 4.501 8.994 3.835 12-2zM125.5 73.5c.997-.03 1.664.47 2 1.5a67.863 67.863 0 0 0 4 16.5 10.504 10.504 0 0 1-3.5 5c-.535-14.47-1.535-14.47-3 0a11.532 11.532 0 0 0-3.5-4.5c2.669-5.844 4.003-12.011 4-18.5zM129.5 73.5h3c.674 4.651 3.341 6.151 8 4.5 2.046-3.005 4.379-3.171 7-.5 2.795 3.182 2.629 6.182-.5 9-1.731-7.247-4.565-7.747-8.5-1.5-3.136 1.04-5.636.207-7.5-2.5l-1.5-9z"/><path style="opacity:1" d="M38.5 95.5c4.703-.38 9.036.62 13 3a89.01 89.01 0 0 1 4.5 17l1.5 1.5c2.982.498 5.982.665 9 .5-1.664 13.661-7.33 25.327-17 35a114.242 114.242 0 0 1-7.5 4c-11.877-6.56-19.21-16.56-22-30a70.523 70.523 0 0 1-1.5-9c4.103.731 7.603-.269 10.5-3a358.13 358.13 0 0 1 3-14c1.272-2.992 3.438-4.659 6.5-5z"/><path style="opacity:1" fill="#fe9900" d="M37.5 97.5c4.376-.386 8.543.28 12.5 2-.76 1.727-1.926 3.394-3.5 5 .249 5.376 1.916 10.21 5 14.5.667.667 1.333.667 2 0-4.538-4.89-5.372-10.056-2.5-15.5a216.027 216.027 0 0 0 3.5 13c2.794 2.484 6.127 3.651 10 3.5A75.662 75.662 0 0 1 54 145.5a40.623 40.623 0 0 1-10.5 8.5c-2.288.418-4.288-.249-6-2-9.728-8.619-15.394-19.452-17-32.5 3.692.529 6.858-.471 9.5-3a70.514 70.514 0 0 0 3.5-13c1.491.848 2.158 2.181 2 4-.269 4.088-1.602 7.755-4 11l.5 1c4.004-3.149 5.838-7.316 5.5-12.5-.471-3.146-1.471-5.979-3-8.5 1.291.237 2.291-.096 3-1z"/><path style="opacity:1" d="M40.5 102.5c3.661-.15 4.661 1.35 3 4.5-3.793.487-4.793-1.013-3-4.5zM47.5 120.5c2.46 8.816.794 16.816-5 24-3.043-2.592-4.876-5.925-5.5-10a42.498 42.498 0 0 1 0-13c.02 7.107 1.687 13.773 5 20a36.17 36.17 0 0 0 4-7c.223-4.75.723-9.416 1.5-14z"/><path style="opacity:1" fill="#fefffe" d="M-.5 132.5c7.2 39.868 30.534 64.535 70 74h-70v-74zM165.5 134.5v72h-70c13.016-2.757 25.016-7.924 36-15.5 18.406-14.656 29.739-33.489 34-56.5z"/><path style="opacity:1" fill="#fe9900" d="M80.5 149.5c15.077.785 22.411 8.785 22 24 6.948-1.437 12.782.563 17.5 6 3.64 4.298 4.14 8.798 1.5 13.5l-3 1.5c-.943-13.149-7.443-17.483-19.5-13l-5.5-4.5c4.659-11.517.992-18.684-11-21.5-12.057 2.702-15.724 9.702-11 21l-5 5c-12.145-4.928-18.812-.595-20 13-4.906-1.816-6.24-5.149-4-10 3.8-8.9 10.468-12.567 20-11-.483-12.851 5.517-20.851 18-24z"/><path style="opacity:1" fill="#006632" d="M79.5 157.5c12.845.684 16.845 7.017 12 19a55.05 55.05 0 0 0 6 6.5 69.337 69.337 0 0 0 8.5-2.5c6.575.741 9.742 4.407 9.5 11 .174 2.193-.493 4.027-2 5.5-14.559 5.209-29.559 6.876-45 5a89.02 89.02 0 0 1-17.5-5.5c-3.793-8.074-1.293-13.407 7.5-16 3.08.977 6.08 1.811 9 2.5a55.05 55.05 0 0 0 6-6.5c-4.145-8.424-2.145-14.757 6-19z"/></svg>
